X: 15815
T: Gooseberry Bush, The
R: reel
M: 4/4
K: Dmajor
DEFD EFGB|AGAB =c2 c/c/c|AB=cA d^cAG|FDEF GBAF|
DEFD EFGB|AB=cA d^cde|afef dfed|1 =cA (3GFE EDDA,:|2 =cA (3GFE EDDA||
dcde fded|=cded cAGB|AB=cA GEED|(3EFG AB =c2 c/c/c|
Ad d/d/d fded|=cded c2 AG|AB (3=cBA dcAG|AB (3=cBA dddc|
dcde fded|=cded cAGB|AB=cA GEED|(3EFG AB =c2 c/c/c|
Ad d/d/d fded|=cded cAGB|AB=cA dcAG|AB (3=cBA dddc||
Adcd fdcd|edge aged|=cdef (3gag ef|fg (3gag dcAB|
d2 AB GBAB|FGAB (3=cdc AG|AB=cA dcAG|AB (3=cBA dddd|
Ad (3cde fdcd|edge aged|cdef (3gag ef|(3gag ge dcAB|
d2 AB GBAB|FGAB (3=cdc AG|AB=cA dcAG|AB (3=cBA d4||

